X:811
T:Green Grow the Rashes O
S:Popular Songs & Melodies of Scotland
Z:Nigel Gatherer
M:4/4
L:1/8
K:G
D | G/G/G BA BGGB | Aeed eAAB | cBce dBGB | AcBA GEE :|
D | G/G/G gf gddg | eaag aeef | gage dBGB | AcBA GEE :|
<end>
<start>
